imgs/lineGraphIcon.svg

<svg width="38" height="38" viewBox="0 0 38 38" fill="none" xmlns="http://www.w3.org/2000/svg">
<path d="M37.243 34.6584H4.53803L8.66519 30.0483C9.0276 30.2412 9.44048 30.3509 9.87852 30.3509C10.8869 30.3509 11.7623 29.7712 12.1933 28.9267L16.4102 29.9957C16.5218 31.3322 17.6403 32.3858 19.0001 32.3858C20.4335 32.3858 21.5997 31.215 21.5997 29.7759C21.5997 28.9823 21.2447 28.2708 20.6861 27.7918L24.125 19.5405L26.574 25.8099C25.9887 26.289 25.6139 27.018 25.6139 27.8334C25.6139 29.2725 26.7802 30.4433 28.2137 30.4433C29.6471 30.4433 30.8133 29.2725 30.8133 27.8334C30.8133 27.5394 30.7639 27.2568 30.6742 26.9929L33.6781 23.9771C33.9737 23.6803 33.9737 23.1991 33.6781 22.9023C33.3825 22.6056 32.9032 22.6056 32.6076 22.9023L29.7737 25.7472C29.3389 25.4185 28.7984 25.2235 28.2134 25.2235C28.1331 25.2235 28.0538 25.2276 27.9753 25.2349L24.9641 17.5263L27.9891 10.2684C28.0631 10.2748 28.1377 10.2787 28.2134 10.2787C29.4171 10.2787 30.432 9.4531 30.7265 8.33627H35.4921C35.9101 8.33627 36.249 7.99599 36.249 7.57635C36.249 7.15671 35.9101 6.81642 35.4921 6.81642H30.67C30.3172 5.79474 29.3497 5.05889 28.2134 5.05889C26.78 5.05889 25.6137 6.22966 25.6137 7.66881C25.6137 8.48924 25.9931 9.22197 26.5846 9.70085L24.1702 15.4937L20.6434 6.46481C21.1733 5.98668 21.5073 5.29374 21.5073 4.52376C21.5073 3.0846 20.3411 1.91383 18.9076 1.91383C17.4741 1.91383 16.3081 3.0846 16.3081 4.52376C16.3081 5.14636 16.5267 5.7186 16.8905 6.16767L10.6502 15.6598C10.3797 15.5638 10.089 15.511 9.78626 15.511C9.47566 15.511 9.17774 15.5662 8.90143 15.6669L3.5409 8.58588V0.824196C3.5409 0.404556 3.20202 0.06427 2.78395 0.06427C2.36587 0.06427 2.02691 0.404556 2.02691 0.824196V8.29656H0.756957C0.338883 8.29648 0 8.63685 0 9.05649C0 9.47612 0.338883 9.81641 0.756957 9.81641H2.02699V17.4538H0.756957C0.338883 17.4538 0 17.7941 0 18.2137C0 18.6334 0.338883 18.9737 0.756957 18.9737H2.02699V26.7962H0.756957C0.338883 26.7962 0 27.1364 0 27.5561C0 27.9757 0.338883 28.316 0.756957 28.316H2.02699V35.4184C2.02699 35.838 2.36587 36.1783 2.78395 36.1783H9.30577V37.1757C9.30577 37.5954 9.64465 37.9357 10.0627 37.9357C10.4808 37.9357 10.8197 37.5954 10.8197 37.1757V36.1783H18.4273V37.1757C18.4273 37.5954 18.7661 37.9357 19.1842 37.9357C19.6023 37.9357 19.9412 37.5954 19.9412 37.1757V36.1783H27.733V37.1757C27.733 37.5954 28.0718 37.9357 28.4899 37.9357C28.908 37.9357 29.2469 37.5954 29.2469 37.1757V36.1783H37.2428C37.6609 36.1783 37.9998 35.838 37.9998 35.4184C37.9998 34.9987 37.6611 34.6584 37.243 34.6584ZM28.2137 26.7435C28.8123 26.7435 29.2995 27.2325 29.2995 27.8336C29.2995 28.4345 28.8124 28.9236 28.2137 28.9236C27.615 28.9236 27.1279 28.4345 27.1279 27.8336C27.1279 27.2325 27.615 26.7435 28.2137 26.7435ZM28.2137 6.57896C28.8124 6.57896 29.2994 7.06797 29.2994 7.66904C29.2994 8.27011 28.8123 8.75912 28.2137 8.75912C27.6149 8.75912 27.1278 8.27011 27.1278 7.66904C27.1278 7.06797 27.6149 6.57896 28.2137 6.57896ZM9.87852 28.831C9.27979 28.831 8.79277 28.342 8.79277 27.7409C8.79277 27.1399 9.27987 26.6509 9.87852 26.6509C10.4772 26.6509 10.9643 27.1399 10.9643 27.7409C10.9642 28.3421 10.4772 28.831 9.87852 28.831ZM19 30.866C18.4013 30.866 17.9143 30.3769 17.9143 29.7759C17.9143 29.1749 18.4014 28.6859 19 28.6859C19.5986 28.6859 20.0857 29.1749 20.0857 29.7759C20.0857 30.3769 19.5987 30.866 19 30.866ZM18.9079 3.43405C19.5066 3.43405 19.9937 3.92306 19.9937 4.52413C19.9937 5.1252 19.5066 5.61421 18.9079 5.61421C18.3092 5.61421 17.8221 5.1252 17.8221 4.52413C17.8221 3.92306 18.3092 3.43405 18.9079 3.43405ZM9.78626 17.0313C10.3851 17.0313 10.8721 17.5202 10.8721 18.1213C10.8721 18.7223 10.385 19.2114 9.78626 19.2114C9.18754 19.2114 8.70052 18.7223 8.70052 18.1213C8.70059 17.5203 9.18769 17.0313 9.78626 17.0313ZM3.54098 11.0981L7.69055 16.5794C7.37415 17.0117 7.18668 17.5449 7.18668 18.1212C7.18668 19.5604 8.35288 20.7311 9.78634 20.7311C11.2198 20.7311 12.3861 19.5604 12.3861 18.1212C12.3861 17.5376 12.1943 16.9983 11.8706 16.5631L18.145 7.01916C18.3864 7.09367 18.6425 7.13398 18.9078 7.13398C19.0303 7.13398 19.1507 7.12482 19.2687 7.10828L23.331 17.5079L19.2983 27.1838C19.2003 27.1725 19.1009 27.166 18.9999 27.166C18.0243 27.166 17.1729 27.7086 16.7283 28.5088L12.4585 27.4263C12.3032 26.1352 11.2057 25.131 9.87837 25.131C8.44491 25.131 7.27871 26.3018 7.27871 27.7409C7.27871 28.1875 7.39122 28.6083 7.58909 28.9763L3.54098 33.4983V11.0981Z" fill="white"/>
<path d="M36.2579 20.2201C35.9622 19.9233 35.4829 19.9233 35.1873 20.2201L34.5884 20.8214C34.2928 21.1182 34.2928 21.5993 34.5884 21.8962C34.7362 22.0445 34.9299 22.1187 35.1236 22.1187C35.3174 22.1187 35.5111 22.0445 35.6589 21.8962L36.2579 21.2949C36.5534 20.998 36.5534 20.5169 36.2579 20.2201Z" fill="white"/>
</svg>

<svg xmlns="http://www.w3.org/2000/svg" width="38" height="38" fill="#fff" xmlns:v="https://vecta.io/nano"><path d="M37.243 34.658H4.538l4.127-4.61a2.57 2.57 0 0 0 1.213.303 2.6 2.6 0 0 0 2.315-1.424l4.217 1.069c.112 1.337 1.23 2.39 2.59 2.39a2.61 2.61 0 0 0 1.686-4.594l3.439-8.251 2.449 6.269a2.61 2.61 0 1 0 4.24 2.023 2.6 2.6 0 0 0-.139-.841l3.004-3.016a.76.76 0 0 0 0-1.075c-.296-.297-.775-.297-1.071 0l-2.834 2.845a2.58 2.58 0 0 0-1.56-.524l-.238.011-3.011-7.709 3.025-7.258.224.01c1.204 0 2.219-.826 2.513-1.942h4.766a.76.76 0 0 0 0-1.52H30.67c-.353-1.022-1.32-1.758-2.457-1.758a2.61 2.61 0 0 0-1.629 4.642l-2.414 5.793-3.527-9.029a2.61 2.61 0 0 0-1.736-4.551 2.61 2.61 0 0 0-2.599 2.61c0 .623.219 1.195.582 1.644l-6.24 9.492a2.58 2.58 0 0 0-1.749.007l-5.36-7.078V.824a.76.76 0 0 0-.757-.76.76.76 0 0 0-.757.76v7.472H.757a.76.76 0 0 0 0 1.52h1.27v7.637H.757a.76.76 0 0 0 0 1.52h1.27v7.822H.757a.76.76 0 1 0 0 1.52h1.27v7.102a.76.76 0 0 0 .757.76h6.522v.997a.76.76 0 0 0 .757.76.76.76 0 0 0 .757-.76v-.997h7.608v.997a.76.76 0 0 0 .757.76.76.76 0 0 0 .757-.76v-.997h7.792v.997a.76.76 0 0 0 .757.76.76.76 0 0 0 .757-.76v-.997h7.996a.76.76 0 0 0 0-1.52zm-9.029-7.915a1.09 1.09 0 1 1 0 2.18 1.09 1.09 0 1 1 0-2.18zm0-20.165a1.09 1.09 0 1 1 0 2.18 1.09 1.09 0 1 1 0-2.18zM9.879 28.831a1.09 1.09 0 1 1 0-2.18 1.09 1.09 0 1 1 0 2.18zM19 30.866a1.09 1.09 0 1 1 0-2.18 1.09 1.09 0 1 1 0 2.18zm-.092-27.432a1.09 1.09 0 1 1 0 2.18 1.09 1.09 0 1 1 0-2.18zM9.786 17.031a1.09 1.09 0 1 1 0 2.18 1.09 1.09 0 1 1 0-2.18zm-6.245-5.933l4.15 5.481c-.316.432-.504.965-.504 1.542a2.61 2.61 0 0 0 2.6 2.61 2.61 2.61 0 0 0 2.6-2.61 2.6 2.6 0 0 0-.516-1.558l6.274-9.544a2.58 2.58 0 0 0 .763.115 2.6 2.6 0 0 0 .361-.026l4.062 10.4-4.033 9.676a2.6 2.6 0 0 0-2.57 1.325l-4.27-1.082c-.155-1.291-1.253-2.295-2.58-2.295a2.61 2.61 0 0 0-2.6 2.61 2.6 2.6 0 0 0 .31 1.235L3.54 33.499v-22.4zm32.717 9.122c-.296-.297-.775-.297-1.071 0l-.599.601a.76.76 0 0 0 0 1.075c.148.148.342.223.535.223a.75.75 0 0 0 .535-.223l.599-.601a.76.76 0 0 0 0-1.075z"/></svg>
